src/frontend_kids/assets/images/profile-icon.svg

<svg width="39" height="38" viewBox="0 0 39 38" fill="none" xmlns="http://www.w3.org/2000/svg">
<path d="M0.324829 20.0725C0.324829 28.2045 5.37907 35.155 12.5119 37.9629C12.067 36.9856 11.8117 35.8989 11.8117 34.7538C11.8117 31.326 14.0435 28.4233 17.1285 27.4095C14.0435 26.3958 11.8117 23.493 11.8117 20.0652C11.8117 15.7986 15.2687 12.3416 19.5353 12.3416C23.8019 12.3416 27.2589 15.7986 27.2589 20.0652C27.2589 23.493 25.0271 26.3958 21.9421 27.4095C25.0271 28.4233 27.2589 31.326 27.2589 34.7538C27.2589 35.8989 27.0109 36.9856 26.5587 37.9629C33.7061 35.155 38.7604 28.2045 38.7604 20.0725C38.7604 9.46078 30.1543 0.854713 19.5426 0.854713C8.93089 0.854713 0.324829 9.46078 0.324829 20.0725Z" fill="#0B334D"/>
</svg>

<svg width="39" height="38" fill="none" xmlns="http://www.w3.org/2000/svg"><path d="M.325 20.073c0 8.131 5.054 15.082 12.187 17.89a7.73 7.73 0 0 1-.7-3.21 7.733 7.733 0 0 1 5.316-7.343 7.733 7.733 0 0 1-5.316-7.345 7.722 7.722 0 0 1 7.723-7.723 7.722 7.722 0 0 1 7.724 7.723 7.733 7.733 0 0 1-5.317 7.345 7.733 7.733 0 0 1 5.317 7.344 7.618 7.618 0 0 1-.7 3.209c7.147-2.808 12.201-9.759 12.201-17.89C38.76 9.46 30.154.855 19.543.855 8.93.855.325 9.46.325 20.073z" fill="#0B334D"/></svg>
